!!!!SEGMENT: pl-wtm--r-1584_stefani-jozef--oycze-nasz.krn
!!!id: 18xx:2339
!!!COM: Stefani, Józef
!!!COM-rism: pe30024097
!!!CDT: 1800/04/16-1876/03/19
!!!CNT: Polish
!!!OTL: Oycze nasz
!!!PDT:
!!!SMS-siglum: PL-Wtm
!!!SMS-shelfmark: R 1584
!!!NIFC-rismID: 1001115596
!!!URL-scan: http://repozytorium.nifc.pl/skany/pl-wtm-nut--r1584
!!!ONB-nifc:
!!!SMS-variant:
!!!SMS-altvar:
!!!OMD: Adagio
**kern	**kern	**kern	**dynam	**kern	**dynam	**kern	**text	**dynam
*part5	*part4	*part3	*part3	*part2	*part2	*part1	*part1	*part1
*staff5	*staff4	*staff3	*	*staff2	*	*staff1	*staff1	*
*	*I"Organo ad libitum	*I"Bass	*	*I"Tenor	*	*I"Sopran	*	*
*clefF4	*clefG2	*clefF4	*	*clefC4	*	*clefG2	*	*
*k[b-e-a-]	*k[b-e-a-]	*k[b-e-a-]	*	*k[b-e-a-]	*	*k[b-e-a-]	*	*
*M4/4	*M4/4	*M4/4	*	*M4/4	*	*M4/4	*	*
*met(c)	*met(c)	*met(c)	*	*met(c)	*	*met(c)	*	*
4E- 4EE-/	4g 4e- 4B-/	8.E-\	.	8.B-\	.	8.g/	Oy-	p
.	.	16E-\	.	16B-\	.	16g/	-cze	.
=1	=1	=1	=1	=1	=1	=1	=1	=1
1E- 1EE-	1g 1e- 1B-	4E-\	.	4B-\	.	4g/	nasz	<
.	.	8.E-\	.	8.B-\	.	8.g/	Któ-	.
.	.	16E-\	.	16B-\	.	16g/	-ryś	.
*	*	*2\right	*	*2\right	*	*	*	*
.	.	2E-\	.	2B-\	.	2g/	iest	[[
=2	=2	=2	=2	=2	=2	=2	=2	=2
*	*^	*	*	*	*	*	*	*
1D 1DD	2b-/	1B-	2D\	.	2B-\	.	(>4.b-/	w_Nie-	>
.	.	.	.	.	.	.	8f/)	.	]
.	2f/	.	2D\	.	2B-\	.	2f/	-bie	.
=3	=3	=3	=3	=3	=3	=3	=3	=3	=3
2C 2CC/	2e-/	1c	4.C/	.	4.c\	.	4.e-/	święc	<
.	.	.	8C/	.	8c\	.	8e-/	się	.
*2\right	*	*	*	*	*	*	*	*	*
2A- 2AA-\	4.f/	.	4.AA-/	.	4.c\	.	4.f/	I-	.
.	(<8f#X/	.	8A-\	.	8c\	.	8f#X/	-mie	[[
!!LO:LB:g=original
=4	=4	=4	=4	=4	=4	=4	=4	=4	=4
!	!	!	!	!	!	!	!	!	!LO:DY:rj
[2G [>2GG\	[2g 2d/)	4c\	2G\	.	(4c\	.	2g/	Two-	f
.	.	8Bn\L	.	.	8Bn\L	.	.	.	.
.	.	8An\J	.	.	8An\J)	.	.	.	.
4G] 4GG\]	4g] 4d;/	4B\	4G;\	.	4B;\	.	4g;/	-je	.
4F 4FF/	4a- 4c/	4ryy	8.F\	.	8.c\	.	8.a-/	przyidź	.
.	.	.	16F\	.	16c\	.	16a-/	Kró-	.
=5	=5	=5	=5	=5	=5	=5	=5	=5	=5
4G 4GG/	4g 4Bn/	4ryy	8.G\	.	8.c\	.	8.g/	-les-	.
.	.	.	16G\	.	16c\	.	16g/	-two	.
*	*	*2\right	*	*	*	*	*	*	*
2A- 2AA-\	2f/	2.c\	2A-\	.	2c\	.	2f/	Two-	.
4An 4AAn\	4e-/	.	8.An\	.	8.c\	.	8.e-/	-je	.
.	.	.	16A\	.	16c\	.	16e-/	bądź	.
*	*v	*v	*	*	*	*	*	*	*
=6	=6	=6	=6	=6	=6	=6	=6	=6
!LO:TX:t=P:problem:brak początku ligatur	!	!	!	!	!	!	!	!
[1B- [1BB-	4d 4B-/	4B-\	.	4B-\	.	4d/	wo-	.
.	4e- 4c/	4BB-/	.	4c\	.	4e-/	-la	<
.	8.fL 8.d/	8.BB-/	.	8.d\	.	8.f/	Two-	.
.	16enJk 16c#X/	16BB-/	.	16c#X\	.	16en/	-ja	.
.	8.fL 8.d/	8.BB-/	.	8.d\	.	8.f/	ia-	.
.	16gJk 16e-X/	16BB-/	.	16e-\	.	16g/	-ko	[[
!!LO:LB:g=original
=7	=7	=7	=7	=7	=7	=7	=7	=7
*	*^	*	*	*	*	*	*	*
1B-] 1BB-]	4.a- 4.f/	2ryy	4.BB-/	.	4.f\	.	4.a-/	w_Nie-	>
.	8g 8e-/	.	8BB-/	.	8e-\	.	8g/	-bie	.
.	[4f/	4e-\	4BB-/	.	4e-\	.	4f/	tak	.
.	8.f/L]	4d\	8.BB-/	.	8.d\	.	8.f/	i	]
.	16b-/Jk	.	16BB-/	.	16d\	.	16b-/	na	.
=8	=8	=8	=8	=8	=8	=8	=8	=8	=8
2.B- 2.E-\	2.g 2.e-/	2.ryy	2E-\	.	(4..e-\	.	2g/	zie-	.
.	.	.	.	.	16B-\)	.	.	.	.
.	.	.	4E-\	.	4B-\	.	4g/	-mi	.
8BnL 8D\	4g/	8fL 8d\	(8D\L	.	(8Bn\L	.	[>4g/	Chle-	.
8cJ 8C\	.	8e-\J	8C\J)	.	8c\J)	.	.	.	.
=9	=9	=9	=9	=9	=9	=9	=9	=9	=9
4Bn 4BBn\	[1g	4d\	4BBn/	.	4d\	.	4g/]	.	.
8.cL 8.C\	.	8.e-\L	8.C/	.	8.e-\	.	8.g/	-ba	.
16BJk 16BB\	.	16d\Jk	16BB/	.	16d\	.	16g/	na-	.
4c 4C\	.	4e-\	4C/	.	4e-\	.	4g/	-sze-	.
4B-X 4BB-X\	.	4d\	4BB-X/	.	4d\	.	4g/	-go	.
=10	=10	=10	=10	=10	=10	=10	=10	=10	=10
2A- 2AA-\	8g/L]	2.c\	4.AA-/	.	4.c\	.	(8g/L	po-	.
.	8f/	.	.	.	.	.	8f/J)	.	.
.	8e-/	.	.	.	.	.	(8e-/L	-wsze-	.
.	8f/J	.	8A-\	.	8c\	.	8f/J)	.	.
2G 2GG\	2g/	.	4G\	.	4c\	.	4g/	-dnie-	.
.	.	4Bn\	4G\	.	4Bn\	.	4g/	-go	.
!!LO:PB:g=original
=11	=11	=11	=11	=11	=11	=11	=11	=11	=11
4F 4FF/	4a-/	8c\L	4F\	.	(8c\L	.	4a-/	day	.
.	.	8d\J	.	.	8d\J)	.	.	.	.
4E- 4EE-/	4g/	2.e-\	4E-\	.	4e-\	.	4g/	nam	.
4A- 4AA-\	4cc/	.	4A-\	.	(8e-\L	.	(8cc\L	dzi-	.
.	.	.	.	.	8c\J)	.	8ee-\J)	.	.
4G 4GG\	4b-/	.	8.G\	.	8.e-\	.	8.b-\	-siaj	.
.	.	.	16G\	.	16e-\	.	16b-\	i	.
=12	=12	=12	=12	=12	=12	=12	=12	=12	=12
4F 4FF/	8.b-/L	4d\	8.F\	.	8.d\	.	8.b-/	od-	.
.	16a-/Jk	.	16F\	.	16d\	.	16a-/	-puść	.
4E- 4EE-/	4g 4e-/	4ryy	4E-\	.	4e-\	.	4g/	nam	.
4BB- 4BBB-/	4f 4d/	2ryy	4BB-/	.	4d\	.	4f/	na-	.
4C 4CC/	4e- 4c/	.	4C/	.	4c\	.	4e-/	-sze	.
=13	=13	=13	=13	=13	=13	=13	=13	=13	=13
[2BB- 2BBB-/	2f 2d/	2ryy	(4..BB-/	.	(4..d\	.	(4..f/	wi-	.
.	.	.	16E-\)	.	16e-\)	.	16g/)	-[[ny]]-	.
4BB-] 4EE-/	4g 4e-/	4ryy	4E-\	.	4e-\	.	4g/	-ny	.
4D 4DD/	8.b-/L	4d [4B-\	8.D\	.	8.B-\	.	8.b-/	ia-	.
.	16a-/Jk	.	16D\	.	16B-\	.	16a-/	-ko	.
!!LO:LB:g=original
=14	=14	=14	=14	=14	=14	=14	=14	=14	=14
*^	*	*	*	*	*	*	*	*	*
!	!	!	!LO:TX:b:t=P:problem:brak zakończenia ligatury	!	!	!	!	!	!	!
8E-L 8EE-\	2ryy	[2g/	8B-\L]	8E-\L	.	(8B-\L	.	4g/	i	.
8D 8DD\	.	.	8Bn\	8D\J	.	8Bn\J)	.	.	.	<
8E- 8EE-\	.	.	8c\	8E-\L	.	(8c\L	.	4g/	my	.
8EnJ 8EEn\	.	.	8c#X\J	8En\J	.	8c#X\J)	.	.	.	.
2F/	2F 2FF\	8.g/L]	4d\	8.F\	.	8.d\	.	8.g/	od-	.
.	.	16f/K	.	16F\	.	16d\	.	16f/	-pusz-	.
.	.	8.dd/	4ryy	8.F\	.	8.B-X\	.	8.dd\	-cza-	.
.	.	16b-/Jk	.	16F\	.	16d\	.	16b-\	-my	[[
=15	=15	=15	=15	=15	=15	=15	=15	=15	=15	=15
*	*	*	*^	*	*	*	*	*	*	*
!	!	!	!	!	!	!	!	!	!	!	!LO:DY:rj
4F 4FF\	2ryy	8.b-/L	2e-\	2ryy	8F\	.	8e-\	.	8b-\	na-	f
.	.	.	.	.	8F\	.	8e-\	.	8an\	-szym	.
.	.	16an/K	.	.	.	.	.	.	.	.	.
8.G-XL 8.GG-X\	.	8.ee-/	.	.	8.G-X\	.	8.c\	.	8.ee-\	wi-	.
16FJk 16FF\	.	16a/Jk	.	.	16F\	.	16e-\	.	16a/	-no-	.
[2F/	4..FF\	(4..a/	2f/	4..e- 4..c\	(4..F\	.	(4..c\	.	(4..a/	-way-	>
.	16BB-\	16b-/	.	16d\	16BB-/)	.	16d\)	.	16b-/)	.	]
*	*	*v	*v	*v	*	*	*	*	*	*	*
=16	=16	=16	=16	=16	=16	=16	=16	=16	=16
4F/]	4BB-\	4b- 4f 4d;/)	4BB-;/	.	4d;\	.	4b-;\	-com	.
2E-\	4ryy	2e-/	8.E-\	.	8.e-\	.	8.e-/	i	p
.	.	.	16E-\	.	16e-\	.	16e-/	nie	.
.	2ryy	.	4E-\	.	4e-\	.	4e-/	wódź	.
4E-\	.	4e-/	4E-\	.	4e-\	.	4e-/	nas	.
*v	*v	*	*	*	*	*	*	*	*
!!LO:LB:g=original
=17	=17	=17	=17	=17	=17	=17	=17	=17
4E-\	4e-/	4E-\	.	4e-\	.	4e-/	na	.
8D\L	8d/L	8D\	.	8d\	.	8d/	po-	.
8C\J	8e-J 8c/	8C\	.	8e- 8c\	.	8e-/	-ku-	.
2BB-/	2f 2d/	(4..BB-/	.	(4..d\	.	(>4..f/	-sze-	.
.	.	16E-\)	.	16e-\)	.	16g/)	.	.
=18	=18	=18	=18	=18	=18	=18	=18	=18
*	*^	*	*	*	*	*	*	*
4E- 4EE-/	4g/	1e-	4E-\	.	4e-\	.	4g/	-nie	<
4G 4GG/	8b-/L	.	8G\	.	8e-\	.	8b-\	A-	.
.	8bn/J	.	8G\	.	8e-\	.	8bn\	-le	.
4A- 4AA-/	4cc/	.	4A-\	.	4e-\	.	4cc\	zbaw	[ >
4G 4GG/	[4b-X/	.	4G\	.	4e-\	.	4b-X\	nas	.
=19	=19	=19	=19	=19	=19	=19	=19	=19	=19
4F 4FF/	8b-/L]	4d\	4F\	.	4d\	.	(8b-/L	o-	]
.	8a-/J	.	.	.	.	.	8a-/J)	.	.
4E- 4EE-/	4g/	2e-\	4E-\	.	4e-\	.	4g/	-de	.
!LO:TX:t=P:problem:zmiana zapisana ołówkiem: 4C 4CC/ oraz 4BB- 4BBB-/	!	!	!	!	!	!	!	!	!
2BB- 2BBB-/	4f/	.	4C-X/	.	4e-\	.	4f/	złe-	.
.	4b-/	4d\	4BB-/	.	4d\	.	4b-/	-go	.
*	*v	*v	*	*	*	*	*	*	*
=20	=20	=20	=20	=20	=20	=20	=20	=20
[2E- [>2EE-/	2g 2e-/	2E-\	.	(4..e-\	.	2g/	a-	.
.	.	.	.	16B-\)	.	.	.	.
4E-] 4EE-/]	4g 4e- 4B-/	4E-\	.	4B-\	.	4g/	-men	.
!	!	!	!LO:DY:a:rj	!	!LO:DY:a:rj	!	!	!LO:DY:rj
[4E-\	[>4e-/	4E-\	p	4E-/	p	4g/	zbaw	p
!!LO:PB:g=original
=21	=21	=21	=21	=21	=21	=21	=21	=21
!LO:TX:t=P:problem:brak zakończenia ligatury	!LO:TX:a:t=P:problem:koniec ligatury na dole	!LO:N:vis=2	!	!	!	!	!	!
2.E-\]	2.e-/]	2.E-\	.	2.E-/	.	2.e-/	nas	.
!	!	!	!LO:DY:a:rj	!	!	!	!	!LO:DY:rj
[4E-\	[4e-/	4E-\	pp	4E-/	.	4e-/	zbaw	pp
=22	=22	=22	=22	=22	=22	=22	=22	=22
2.E-\]	2.e-/]	2.E-\	.	2.E-/	.	2.e-/	nas	.
4r	4r	4r	.	4r	.	4r	.	.
=23	=23	=23	=23	=23	=23	=23	=23	=23
2AA- 2AAA-/	2cc 2a- 2e-/	2AA-/	.	2e-\	.	2cc\	Oy-	f
2C 2CC/	2a- 2e- 2c/	2C/	.	2c\	.	2a-/	-cze	.
=24	=24	=24	=24	=24	=24	=24	=24	=24
1E- 1EE-;	1g 1e-;	1E-;	.	1B-;	.	1g;	nasz.	>]
==	==	==	==	==	==	==	==	==
*-	*-	*-	*-	*-	*-	*-	*-	*-
!!!system-decoration: [(s1,s2,s3)][(s4,s5)]
!!!RDF**kern: > = above
!!!RDF**kern: < = below
!!!ENC: Marta Lawrence
!!!END: 2021-06-12
!!!ENC: Andrzej Kubiczek
!!!END: 2021-06-03
